X: 178
T:Stetit autem Salomon / Benedic, Domine
N: Derived from Jos1414-Stetit_autem_Salomon.krn
C: Josquin des Prez
%%abc-version 2.0
%%abcx-abcm2ps-target-version 5.9.1 (29 Sep 2008)
%%abc-creator hum2abc beta
%%abcx-conversion-date 2019/02/12 16:15:46
%%abc-edited-by Jesse Rodin
%%abc-edited-by Will Watson 13/07/2011
%%abcx-initial-encoding-date 2011/07/13/
%%humdrum-veritas 881868349
%%humdrum-veritas-data 3102907216
%%linebreak <none>
%%barnumbers 0
L: 1/4
M: 2/1
Q: 1/2=120
%%staves [1 2 3 4]
V: 1 clef=treble
V: 2 clef=treble-8
V: 3 clef=treble-8
V: 4 clef=bass
K: C
[V:1] G8 | 
[V:2] z8 | 
[V:3] z8 | 
[V:4] z8 | 
[V:1] E4F4 | 
[V:2] z8 | 
[V:3] z8 | 
[V:4] z8 | 
[V:1] G6E2 | 
[V:2] c8 | 
[V:3] z8 | 
[V:4] z8 | 
[V:1] F2E2D4 | 
[V:2] A4B4 | 
[V:3] z8 | 
[V:4] z8 | 
[V:1] C2G2G2G2 | 
[V:2] c4c2de | 
[V:3] z8 | 
[V:4] z8 | 
[V:1] A2G2A2B2 | 
[V:2] f2e2d4 | 
[V:3] z8 | 
[V:4] z8 | 
[V:1] c2BAG3A | 
[V:2] c2c2c2c2 | 
[V:3] z8 | 
[V:4] z8 | 
[V:1] B2A4G2 | 
[V:2] d2c2d2e2 | 
[V:3] z8 | 
[V:4] z8 | 
[V:1] A4G4 | 
[V:2] f4e2d2 | 
[V:3] z4z2G2 | 
[V:4] z8 | 
[V:1] z2B2c2B2 | 
[V:2] g3fede2- | 
[V:3] G2G2A2G2 | 
[V:4] z8 | 
[V:1] c2BAG4- | 
[V:2] e2d2e4 | 
[V:3] A2B2c4 | 
[V:4] z4z2C,2 | 
[V:1] G4z4 | 
[V:2] z2e2f2e2 | 
[V:3] c4A2c2 | 
[V:4] C,2C,2D,2C,2 | 
[V:1] z4z2F2 | 
[V:2] f2edc4- | 
[V:3] B2B2A4- | 
[V:4] D,2E,2F,4 | 
[V:1] E2F2G2F2- | 
[V:2] c4z2d2 | 
[V:3] A2A2G2A2 | 
[V:4] z2F,2E,2D,2- | 
[V:1] FEG4^F2 | 
[V:2] f2e2d4- | 
[V:3] B2c2A4 | 
[V:4] D,2C,2D,4 | 
[V:1] G4G3F | 
[V:2] d2d2B2d2 | 
[V:3] G8- | 
[V:4] G,,4z4 | 
[V:1] EDG4^F2 | 
[V:2] c3BA4 | 
[V:3] G4z4 | 
[V:4] C,4D,2D,2 | 
[V:1] G4z4 | 
[V:2] z8 | 
[V:3] G4A2A2 | 
[V:4] E,4D,2F,2 | 
[V:1] z8 | 
[V:2] z8 | 
[V:3] B4A4 | 
[V:4] E,2D,4C,B,, | 
[V:1] z8 | 
[V:2] z8 | 
[V:3] c4B2G2 | 
[V:4] A,,4G,,2G,2- | 
[V:1] z8 | 
[V:2] z8 | 
[V:3] A4G4 | 
[V:4] G,2F,2G,2C,2- | 
[V:1] z8 | 
[V:2] z8 | 
[V:3] z2G2d4- | 
[V:4] C,2G,4F,E, | 
[V:1] z8 | 
[V:2] z8 | 
[V:3] d2cBc2d2- | 
[V:4] F,2G,2E,2F,2- | 
[V:1] z8 | 
[V:2] c4d2d2 | 
[V:3] d2c4B2 | 
[V:4] F,C,E,2D,4 | 
[V:1] G4A2A2 | 
[V:2] e4d2f2 | 
[V:3] c4z4 | 
[V:4] C,4z4 | 
[V:1] B4A4 | 
[V:2] e2d4cB | 
[V:3] z8 | 
[V:4] z8 | 
[V:1] c4B2G2 | 
[V:2] AGA2G2g2- | 
[V:3] z4G4 | 
[V:4] z8 | 
[V:1] A4G4- | 
[V:2] g2^f2g4 | 
[V:3] d6cB | 
[V:4] D,4G,3F, | 
[V:1] G2F2E4 | 
[V:2] z2d2g3f | 
[V:3] c2d2B2c2- | 
[V:4] E,2D,2E,4 | 
[V:1] z2D2G3F | 
[V:2] e2d2e4 | 
[V:3] c2A2B2G2 | 
[V:4] C,2F,2E,3D, | 
[V:1] E2D2E2D2 | 
[V:2] z2B2c2d2- | 
[V:3] G6B2 | 
[V:4] C,2G,,2C,2G,2 | 
[V:1] F2E2F4 | 
[V:2] dcc4B2 | 
[V:3] A2G4F2 | 
[V:4] F,E,D,C,D,4 | 
[V:1] E8 | 
[V:2] c4z4 | 
[V:3] G4z4 | 
[V:4] C,4z4 | 
[V:1] E8 | 
[V:2] c8 | 
[V:3] G8 | 
[V:4] C,4C,4- | 
[V:1] E6F2 | 
[V:2] c6d2 | 
[V:3] G6G2 | 
[V:4] C,2C,2C,4 | 
[V:1] G4G4 | 
[V:2] e4e4 | 
[V:3] G4c4 | 
[V:4] C,4C,4 | 
[V:1] A3cB2A2- | 
[V:2] f3eg2f2- | 
[V:3] c4d4 | 
[V:4] F,2A,2G,2D,2 | 
[V:1] AGG4^F2 | 
[V:2] f2e2d4 | 
[V:3] c2B2A4 | 
[V:4] F,2G,2D,4 | 
[V:1] G8- | 
[V:2] z2d4d2 | 
[V:3] G8- | 
[V:4] G,,8 | 
[V:1] G8 | 
[V:2] c2B2d4 | 
[V:3] G4z4 | 
[V:4] z2G,4G,2 | 
[V:1] z2G4G2 | 
[V:2] z2e4d2- | 
[V:3] z8 | 
[V:4] F,2E,2G,4 | 
[V:1] F2E2G3F | 
[V:2] d2c2d4 | 
[V:3] z4z2G2- | 
[V:4] A,4G,4 | 
[V:1] D2E2F2G2- | 
[V:2] B4c4- | 
[V:3] G2G2F2E2 | 
[V:4] z4z2C,2- | 
[V:1] GFE2D2C2 | 
[V:2] c4z2c2- | 
[V:3] G6A2- | 
[V:4] C,2C,2B,,2A,,2 | 
[V:1] E4z4 | 
[V:2] c2c2B2A2 | 
[V:3] A2G4F2 | 
[V:4] C,4D,4 | 
[V:1] z8 | 
[V:2] c3BAGA2- | 
[V:3] G4F2E2- | 
[V:4] C,2C,2F,,2C,2- | 
[V:1] z4c4 | 
[V:2] A2G4^F2 | 
[V:3] E2D4C2 | 
[V:4] C,B,,A,,G,,A,,4 | 
[V:1] B4A4 | 
[V:2] G4z2d2 | 
[V:3] D2G2F2D2- | 
[V:4] G,,4z4 | 
[V:1] z2A2c4 | 
[V:2] f4e2c2 | 
[V:3] DEFGA4 | 
[V:4] z8 | 
[V:1] B2G2A2B2 | 
[V:2] d2e2A2e2- | 
[V:3] G2E2F2G2 | 
[V:4] z8 | 
[V:1] E4D2G2- | 
[V:2] e2dcB2G2 | 
[V:3] A4z4 | 
[V:4] z8 | 
[V:1] GFEDC3D | 
[V:2] c3BAGc2- | 
[V:3] z8 | 
[V:4] z4F,4 | 
[V:1] EFG4^F2 | 
[V:2] cBAGA4 | 
[V:3] z8 | 
[V:4] E,4D,4 | 
[V:1] G8 | 
[V:2] G8 | 
[V:3] z4B4 | 
[V:4] z2E,2G,4 | 
[V:1] z8 | 
[V:2] z8 | 
[V:3] d6d2 | 
[V:4] G,4F,2D,2 | 
[V:1] z4z2E2 | 
[V:2] z8 | 
[V:3] c2A2c3d | 
[V:4] F,3G,A,4 | 
[V:1] G6G2 | 
[V:2] z8 | 
[V:3] e2d4^c2 | 
[V:4] G,F,E,D,E,4 | 
[V:1] F2D2F3G | 
[V:2] z2A2d3e | 
[V:3] d4z2A2 | 
[V:4] D,4D,4 | 
[V:1] A3Bc4 | 
[V:2] f2f2e2c2 | 
[V:3] d2d2c4 | 
[V:4] D,4A,4 | 
[V:1] B3cdcBA | 
[V:2] d2e2f4 | 
[V:3] z2G2A2B2 | 
[V:4] G,2F,E,D,4 | 
[V:1] G4z2G2 | 
[V:2] e2g2f2e2 | 
[V:3] c2e2d2c2- | 
[V:4] z2C,2D,2E,2 | 
[V:1] A2G2E4- | 
[V:2] d4c4- | 
[V:3] c2B2c4 | 
[V:4] F,2G,2C,4 | 
[V:1] E4z4 | 
[V:2] c4z4 | 
[V:3] z2G2A2G2 | 
[V:4] z2C,2A,,2B,,2 | 
[V:1] z2G2A2G2 | 
[V:2] z2c2A2B2 | 
[V:3] E4z4 | 
[V:4] C,4z4 | 
[V:1] E2A4GF | 
[V:2] c4d4 | 
[V:3] z8 | 
[V:4] z8 | 
[V:1] G2A2G2F2- | 
[V:2] c2f2e2d2- | 
[V:3] z8 | 
[V:4] z8 | 
[V:1] FEDCD4 | 
[V:2] dcc4B2 | 
[V:3] z4G4 | 
[V:4] z8 | 
[V:1] C4z4 | 
[V:2] c4c4- | 
[V:3] A6G2 | 
[V:4] z2F,2F,2E,2 | 
[V:1] z2F2F2E2 | 
[V:2] c4z2c2 | 
[V:3] A3Bc4 | 
[V:4] F,3G,A,4 | 
[V:1] F3GA4 | 
[V:2] c2A2c3d | 
[V:3] z8 | 
[V:4] F,6E,D, | 
[V:1] z8 | 
[V:2] e6f2 | 
[V:3] z2G2G2A2 | 
[V:4] C,3D,E,2D,2 | 
[V:1] z8 | 
[V:2] e2d4c2 | 
[V:3] B4B2A2- | 
[V:4] G,4G,2C,2 | 
[V:1] z8 | 
[V:2] B2AGA4 | 
[V:3] AGG4^F2 | 
[V:4] D,2E,2D,4 | 
[V:1] z2G2G2A2 | 
[V:2] GABcdef2 | 
[V:3] G3AB2c2 | 
[V:4] G,,4G,2F,2 | 
[V:1] B3cB2A2- | 
[V:2] d2g3fe2 | 
[V:3] B2d4c2- | 
[V:4] G,6A,2 | 
[V:1] AGG4^F2 | 
[V:2] f2d2d4 | 
[V:3] cBAGA4 | 
[V:4] F,2G,2D,4 | 
[V:1] [M:3/1]G8z4 | 
[V:2] [M:3/1]d8z4 | 
[V:3] [M:3/1]G8z4 | 
[V:4] [M:3/1]G,,8z4 | 
[V:1] G4G4A4 | 
[V:2] d4d4d4 | 
[V:3] G4B4A4 | 
[V:4] G,,4G,,4D,4 | 
[V:1] B8c4 | 
[V:2] d8e4 | 
[V:3] G12 | 
[V:4] G,,8C,4 | 
[V:1] B4A6G2 | 
[V:2] g4d8 | 
[V:3] G4A4B4 | 
[V:4] E,4F,4G,4 | 
[V:1] G8^F4 | 
[V:2] c4d8 | 
[V:3] G4A8 | 
[V:4] E,4D,8 | 
[V:1] G12 ||  
[V:2] d12 ||  
[V:3] G12 ||  
[V:4] G,,12 ||  
[V:1] [M:2/1]z8 | 
[V:2] [M:2/1]z8 | 
[V:3] [M:2/1]G4G2G2 | 
[V:4] [M:2/1]G,4G,2E,2 | 
[V:1] z4G4 | 
[V:2] z4g4 | 
[V:3] A2B2c4- | 
[V:4] F,2G,2C,4 | 
[V:1] G2G2A2B2 | 
[V:2] g2e2f2g2 | 
[V:3] c4z4 | 
[V:4] z8 | 
[V:1] c6BA | 
[V:2] c4f4 | 
[V:3] z8 | 
[V:4] z8 | 
[V:1] G2A2F2ED | 
[V:2] e2d4cB | 
[V:3] z8 | 
[V:4] z8 | 
[V:1] C2D4E2 | 
[V:2] A2GABGc2- | 
[V:3] z8 | 
[V:4] z2G,2G,2E,2 | 
[V:1] D4C4- | 
[V:2] c2B2c4- | 
[V:3] z2G2G2G2 | 
[V:4] F,2G,2C,4 | 
[V:1] C4z4 | 
[V:2] c4z4 | 
[V:3] A3Bc4 | 
[V:4] z2F,4F,2 | 
[V:1] z8 | 
[V:2] z8 | 
[V:3] c4B2G2 | 
[V:4] E,2C,2E,4 | 
[V:1] z8 | 
[V:2] z8 | 
[V:3] A4B2c2- | 
[V:4] D,2F,2G,2A,2- | 
[V:1] z8 | 
[V:2] z2c4c2 | 
[V:3] cBAGA4 | 
[V:4] A,G,G,4^F,2 | 
[V:1] z8 | 
[V:2] B2G2B4 | 
[V:3] G2d6 | 
[V:4] G,8 | 
[V:1] z2G4G2 | 
[V:2] A2c3de2- | 
[V:3] c4B2c2 | 
[V:4] C,4G,2C,2 | 
[V:1] F2D2E4 | 
[V:2] edd4^c2 | 
[V:3] A4z2A2- | 
[V:4] D,4A,,4 | 
[V:1] D2F2G2A2- | 
[V:2] d8- | 
[V:3] A2A2B2A2 | 
[V:4] D,4G,2F,2 | 
[V:1] AGG4^F2 | 
[V:2] d8 | 
[V:3] B2G2A4 | 
[V:4] G,2G,,2D,4 | 
[V:1] G4z2E2- | 
[V:2] B4z2c2- | 
[V:3] G4z2G2- | 
[V:4] G,,4z2C,2- | 
[V:1] E2E2E2E2 | 
[V:2] c2c2c2c2 | 
[V:3] G2G2A2G2 | 
[V:4] C,2C,2A,,2C,2 | 
[V:1] E4G4- | 
[V:2] c4c4 | 
[V:3] G4z4 | 
[V:4] C,4z4 | 
[V:1] G2A4GF | 
[V:2] B2A2c3d | 
[V:3] z8 | 
[V:4] z8 | 
[V:1] G2A3GFE | 
[V:2] e2f3edc | 
[V:3] z8 | 
[V:4] z8 | 
[V:1] F4E4 | 
[V:2] d4c4 | 
[V:3] z4G4- | 
[V:4] z4C,4 | 
[V:1] z8 | 
[V:2] z8 | 
[V:3] G2A2A3G/F/ | 
[V:4] B,,2A,,2C,3D, | 
[V:1] z8 | 
[V:2] z4A4 | 
[V:3] G2A3GFE | 
[V:4] E,2F,3E,D,C, | 
[V:1] z4E4 | 
[V:2] A2B2c4 | 
[V:3] F4E4 | 
[V:4] D,4C,4 | 
[V:1] E2F2G4 | 
[V:2] A2d2B2c2- | 
[V:3] z8 | 
[V:4] z8 | 
[V:1] E2A2G3F | 
[V:2] c2BAB2c2- | 
[V:3] z8 | 
[V:4] z8 | 
[V:1] EDF3EE2- | 
[V:2] cBA3GFE | 
[V:3] z8 | 
[V:4] z4A,,4 | 
[V:1] E2D2E4 | 
[V:2] F4E2G2 | 
[V:3] z4E4 | 
[V:4] A,,2B,,2C,3B,, | 
[V:1] z4z2C2 | 
[V:2] A2B2c4 | 
[V:3] E2F2G4 | 
[V:4] A,,2D,2C,3B,, | 
[V:1] D2E2F4 | 
[V:2] B2c6 | 
[V:3] G4A4 | 
[V:4] G,,2C,2F,,4 | 
[V:1] E3DCB,D2- | 
[V:2] c3BA2G2- | 
[V:3] G3FE2D2 | 
[V:4] C,6B,,2 | 
[V:1] DCC4B,2 | 
[V:2] G2F2G4 | 
[V:3] E2C2D4 | 
[V:4] A,,4G,,4 | 
[V:1] C8 | 
[V:2] G8 | 
[V:3] C4z2G2 | 
[V:4] C,8- | 
[V:1] z8 | 
[V:2] z8 | 
[V:3] A2c4c2 | 
[V:4] C,8 | 
[V:1] G4A2c2- | 
[V:2] z8 | 
[V:3] B2B2A4 | 
[V:4] z8 | 
[V:1] c2c2c2B2 | 
[V:2] z8 | 
[V:3] A3Bc2d2- | 
[V:4] z8 | 
[V:1] A4G3F | 
[V:2] z8 | 
[V:3] dcc4BA | 
[V:4] z8 | 
[V:1] G2A3GG2- | 
[V:2] z8 | 
[V:3] B2c3BAG | 
[V:4] z8 | 
[V:1] G2^F2G4- | 
[V:2] z8 | 
[V:3] A4G4 | 
[V:4] D,4E,2G,2- | 
[V:1] G4z4 | 
[V:2] G4A2c2- | 
[V:3] z8 | 
[V:4] G,2G,2F,2E,2 | 
[V:1] z8 | 
[V:2] c2c2B2A2 | 
[V:3] z8 | 
[V:4] F,3A,G,2F,2 | 
[V:1] z8 | 
[V:2] B2d3cBA | 
[V:3] z8 | 
[V:4] E,2D,2G,3F, | 
[V:1] z8 | 
[V:2] G2c2d2e2 | 
[V:3] z8 | 
[V:4] E,D,C,2G,3E, | 
[V:1] z2G4E2 | 
[V:2] c2e3dc2- | 
[V:3] z4G4 | 
[V:4] F,2E,2C,3E, | 
[V:1] F4D4 | 
[V:2] c2BAB4 | 
[V:3] A4F4 | 
[V:4] D,8 | 
[V:1] E8 | 
[V:2] c8- | 
[V:3] G4z2G2 | 
[V:4] C,4z2C,2 | 
[V:1] z2A2G3A | 
[V:2] c4z4 | 
[V:3] G2A2B3c | 
[V:4] E,2F,2G,4- | 
[V:1] B2B2c4 | 
[V:2] z2g4f2 | 
[V:3] d2e4dc | 
[V:4] G,2E,2A,4 | 
[V:1] B4A4 | 
[V:2] g4f4 | 
[V:3] d2e2c2d2 | 
[V:4] G,2E,2F,2D,2 | 
[V:1] G4F2A2- | 
[V:2] e3dc2f2 | 
[V:3] B2c2A2c2- | 
[V:4] E,2C,2F,3E, | 
[V:1] A2G4^F2 | 
[V:2] e2c2d4 | 
[V:3] cBAGA4 | 
[V:4] C,2E,2D,4 | 
[V:1] [M:3/1]G8z4 | 
[V:2] [M:3/1]d8z4 | 
[V:3] [M:3/1]G8z4 | 
[V:4] [M:3/1]G,,8z4 | 
[V:1] G4G4A4 | 
[V:2] d4d4d4 | 
[V:3] G4B4A4 | 
[V:4] G,,4G,,4D,4 | 
[V:1] B8c4 | 
[V:2] d8e4 | 
[V:3] G12 | 
[V:4] G,,8C,4 | 
[V:1] B4A6G2 | 
[V:2] g4f4d4 | 
[V:3] G4A4B4 | 
[V:4] E,4F,4G,4 | 
[V:1] G8^F4 | 
[V:2] c4d8 | 
[V:3] G4A8 | 
[V:4] E,4D,8 | 
[V:1] [M:2/1]G6^FE | 
[V:2] [M:2/1]B4c4 | 
[V:3] [M:2/1]G8 | 
[V:4] [M:2/1]E,8 | 
[V:1] ^F8 | 
[V:2] d8 | 
[V:3] A8 | 
[V:4] D,8 | 
[V:1] G8 |]  
[V:2] d8 |]  
[V:3] G8 |]  
[V:4] G,,8 |]  



